src/lib/packages/icons/src/assets/line/bolt.svg

<svg width="24" height="24" viewBox="0 0 24 24" fill="none" xmlns="http://www.w3.org/2000/svg">
<path d="M7.41303 21.75C7.27603 21.75 7.13903 21.713 7.01703 21.636C6.72103 21.451 6.59102 21.086 6.70502 20.756L9.45398 12.749H7.00299C6.44099 12.749 5.90997 12.477 5.58197 12.021C5.25397 11.566 5.16498 10.977 5.34198 10.445L7.96301 3.75101C8.26601 2.83801 9.05198 2.24899 10.001 2.24899H14.48C15.071 2.24899 15.617 2.544 15.942 3.037C16.267 3.531 16.321 4.15 16.087 4.692L14.552 8.24899H16.999C17.709 8.24899 18.344 8.67299 18.616 9.32899C18.888 9.98499 18.739 10.734 18.237 11.236L7.94501 21.529C7.79901 21.675 7.60703 21.75 7.41303 21.75ZM10 3.75C9.602 3.75 9.43601 4.071 9.37201 4.263L6.75098 10.958C6.72898 11.027 6.77097 11.108 6.79797 11.146C6.82597 11.185 6.89002 11.25 7.00202 11.25H9.87299C10.26 11.25 10.625 11.438 10.85 11.752C11.075 12.066 11.134 12.473 11.009 12.839L9.177 18.177L17.176 10.177C17.279 10.074 17.254 9.962 17.23 9.905C17.206 9.848 17.144 9.75101 16.999 9.75101H14.096C13.691 9.75101 13.317 9.549 13.094 9.211C12.871 8.873 12.834 8.448 12.994 8.076L14.71 4.10001C14.756 3.99201 14.717 3.90501 14.689 3.86301C14.661 3.82101 14.598 3.75 14.481 3.75H10ZM9.87299 12.75H9.883H9.87299Z" fill="currentColor"/>
</svg>

<svg xmlns="http://www.w3.org/2000/svg" width="24" height="24" fill="none"><path fill="currentColor" d="M7.413 21.75a.75.75 0 0 1-.708-.994l2.749-8.007H7.003a1.754 1.754 0 0 1-1.421-.728 1.754 1.754 0 0 1-.24-1.576l2.621-6.694c.303-.913 1.089-1.502 2.038-1.502h4.479c.591 0 1.137.295 1.462.788.325.494.379 1.113.145 1.655l-1.535 3.557h2.447c.71 0 1.345.424 1.617 1.08a1.745 1.745 0 0 1-.379 1.907L7.945 21.529a.75.75 0 0 1-.532.221ZM10 3.75c-.398 0-.564.321-.628.513l-2.621 6.695c-.022.069.02.15.047.188a.246.246 0 0 0 .204.104h2.871c.387 0 .752.188.977.502.225.314.284.721.159 1.087l-1.832 5.338 7.999-8a.237.237 0 0 0 .054-.272.24.24 0 0 0-.231-.154h-2.903a1.198 1.198 0 0 1-1.102-1.675L14.71 4.1a.245.245 0 0 0-.021-.237.243.243 0 0 0-.208-.113H10Zm-.127 9h.01-.01Z"/></svg>
